X:663
T: MEERSTERN ICH DICH GRUESSE
N: E2048
O: Europa, Mitteleuropa, Deutschland, Franken
R: geistlich, Marien - Lied
M: 4/4
L: 1/8
K: A
 | A3GA2B2 | c2c2z2
e2 | c2efedBe | c4z4 |
A3GA2B2 | c2c2z2
e2 | c2efedBe | c4z2
AB | c2c2dcdf | e2e2z2
d2 | cecAB2B2 | A4z4

@@@ Tune index: 5347
